packages/icons/src/assets/spacing.svg

<svg width="16" height="16" viewBox="0 0 16 16" fill="currentColor" xmlns="http://www.w3.org/2000/svg">
<path d="M15.5 14.6504H0.5V13.4004H15.5V14.6504ZM7.3418 3.05469C7.71509 2.67569 8.33664 2.68851 8.69336 3.09277L11.3936 6.15234L10.6064 6.84766L8.59961 4.57324V11.5283L10.6064 9.25293L11.3936 9.94727L8.69336 13.0078C8.33658 13.4118 7.71499 13.4239 7.3418 13.0449L7.30664 13.0078L4.60645 9.94727L5.39355 9.25293L7.34961 11.4707V4.63086L5.39355 6.84766L4.60645 6.15234L7.30664 3.09277L7.3418 3.05469ZM15.5 2.59961H0.5V1.34961H15.5V2.59961Z" fill="currentColor"/>
</svg>

<svg xmlns="http://www.w3.org/2000/svg" width="16" height="16" viewBox="0 0 16 16"><path d="M15.5 14.65H.5V13.4h15zM7.342 3.055a.925.925 0 0 1 1.351.038l2.7 3.06-.787.695L8.6 4.573v6.955l2.006-2.275.788.694-2.7 3.06a.925.925 0 0 1-1.352.038l-.035-.037-2.7-3.06.787-.695L7.35 11.47V4.63L5.394 6.848l-.788-.696 2.7-3.06zM15.5 2.6H.5V1.35h15z"/></svg>
